mobile/24/svg/extension-24.svg

<svg width="24" height="24" viewBox="0 0 24 24" fill="none" xmlns="http://www.w3.org/2000/svg">
<path fill-rule="evenodd" clip-rule="evenodd" d="M12.5 3.75C11.5332 3.75 10.75 4.53325 10.75 5.5V7.875C10.75 8.35825 10.3582 8.75 9.875 8.75H6.5C6.08625 8.75 5.75 9.08625 5.75 9.5V11H7.25C9.18325 11 10.75 12.5668 10.75 14.5C10.75 16.4332 9.18325 18 7.25 18H5.75V19.5C5.75 19.9138 6.08625 20.25 6.5 20.25H18.5C18.9138 20.25 19.25 19.9138 19.25 19.5V9.5C19.25 9.08625 18.9138 8.75 18.5 8.75H15.125C14.6418 8.75 14.25 8.35825 14.25 7.875V5.5C14.25 4.53325 13.4668 3.75 12.5 3.75ZM9 5.5C9 3.56675 10.5668 2 12.5 2C14.4332 2 16 3.56675 16 5.5V7H18.5C19.8802 7 21 8.11975 21 9.5V19.5C21 20.8802 19.8802 22 18.5 22H6.5C5.11975 22 4 20.8802 4 19.5V17.125C4 16.6418 4.39175 16.25 4.875 16.25H7.25C8.21675 16.25 9 15.4668 9 14.5C9 13.5332 8.21675 12.75 7.25 12.75H4.875C4.39175 12.75 4 12.3582 4 11.875V9.5C4 8.11975 5.11975 7 6.5 7H9V5.5Z" fill="black"/>
</svg>

<svg width="24" height="24" fill="none" xmlns="http://www.w3.org/2000/svg"><path fill-rule="evenodd" clip-rule="evenodd" d="M12.5 3.75a1.75 1.75 0 0 0-1.75 1.75v2.375a.875.875 0 0 1-.875.875H6.5a.75.75 0 0 0-.75.75V11h1.5a3.5 3.5 0 1 1 0 7h-1.5v1.5c0 .414.336.75.75.75h12a.75.75 0 0 0 .75-.75v-10a.75.75 0 0 0-.75-.75h-3.375a.875.875 0 0 1-.875-.875V5.5a1.75 1.75 0 0 0-1.75-1.75zM9 5.5a3.5 3.5 0 1 1 7 0V7h2.5A2.5 2.5 0 0 1 21 9.5v10a2.5 2.5 0 0 1-2.5 2.5h-12A2.5 2.5 0 0 1 4 19.5v-2.375c0-.483.392-.875.875-.875H7.25a1.75 1.75 0 1 0 0-3.5H4.875A.875.875 0 0 1 4 11.875V9.5A2.5 2.5 0 0 1 6.5 7H9V5.5z" fill="#000"/></svg>
